icons/communication/message-question-24.svg

<svg width="24" height="24" viewBox="0 0 24 24" fill="none" xmlns="http://www.w3.org/2000/svg">
<path d="M12.6939 8.15193C12.3374 8.09198 11.9708 8.15766 11.6589 8.33735C11.3471 8.51704 11.1102 8.79913 10.9901 9.13367C10.8496 9.52529 10.4119 9.73108 10.0125 9.59332C9.61304 9.45556 9.40314 9.02641 9.54365 8.63479C9.78385 7.96534 10.258 7.40083 10.882 7.04126C11.506 6.68168 12.2397 6.55024 12.9531 6.67021C13.6666 6.79019 14.3136 7.15384 14.7798 7.69675C15.2458 8.23949 15.5009 8.92638 15.5 9.63581C15.4998 10.7857 14.6302 11.545 14.0094 11.9508C13.8107 12.0807 13.6139 12.1901 13.4362 12.2796C13.3472 12.3244 13.3027 12.3468 13.2733 12.3768C13.2463 12.4042 13.2279 12.4337 13.2154 12.4698C13.2017 12.5091 13.2017 12.5554 13.2017 12.6479V12.6214C13.2017 13.0365 12.8584 13.373 12.435 13.373C12.0116 13.373 11.6683 13.0365 11.6683 12.6214L11.6683 11.8887C11.6683 11.5657 11.8787 11.2789 12.1909 11.1761C12.1909 11.1761 12.3893 11.1017 12.4827 11.061C12.6718 10.9786 12.9181 10.8573 13.1589 10.6999C13.6871 10.3546 13.9666 9.98743 13.9666 9.63535C13.9672 9.28072 13.8397 8.93622 13.6067 8.66491C13.3738 8.39361 13.0504 8.21189 12.6939 8.15193Z" fill="black"/>
<path d="M12.5 14.373C13.0523 14.373 13.5 14.8208 13.5 15.373C13.5 15.9253 13.0523 16.373 12.5 16.373C11.9477 16.373 11.5 15.9253 11.5 15.373C11.5 14.8208 11.9477 14.373 12.5 14.373Z" fill="black"/>
<path fill-rule="evenodd" clip-rule="evenodd" d="M3.00001 11.5C3.00001 12.8408 3.27821 14.1184 3.78057 15.2767L2.08244 19.3131C1.7836 20.0234 2.36666 20.7906 3.13105 20.6928L8.3135 20.03C9.57728 20.6513 10.9989 21 12.5 21C17.7467 21 22 16.7467 22 11.5C22 6.25329 17.7467 2 12.5 2C7.2533 2 3.00001 6.25329 3.00001 11.5ZM12.5 3.5C8.08173 3.5 4.50001 7.08172 4.50001 11.5C4.50001 12.7385 4.78091 13.9092 5.28177 14.9539C5.39825 15.1969 5.37227 15.4713 5.23708 15.6828L3.80161 19.0948L8.34898 18.5132C8.48487 18.4958 8.61691 18.516 8.73469 18.5656C8.75906 18.5752 8.78317 18.5862 8.80691 18.5986C9.91092 19.1742 11.1663 19.5 12.5 19.5C16.9183 19.5 20.5 15.9183 20.5 11.5C20.5 7.08172 16.9183 3.5 12.5 3.5Z" fill="black"/>
</svg>

<svg xmlns="http://www.w3.org/2000/svg" width="24" height="24"><path d="M12.694 8.152a1.558 1.558 0 00-1.035.185 1.51 1.51 0 00-.669.797.77.77 0 01-.978.46.748.748 0 01-.468-.96 3.02 3.02 0 011.338-1.593 3.117 3.117 0 012.071-.37 3.08 3.08 0 011.827 1.026 2.97 2.97 0 01.72 1.939c0 1.15-.87 1.909-1.49 2.315-.2.13-.396.24-.574.329a.63.63 0 00-.163.097.24.24 0 00-.058.093c-.013.04-.013.085-.013.178v-.027a.76.76 0 01-.767.752.76.76 0 01-.767-.752v-.732c0-.323.21-.61.523-.713 0 0 .198-.074.292-.115.189-.082.435-.204.676-.361.528-.345.808-.713.808-1.065a1.49 1.49 0 00-.36-.97 1.539 1.539 0 00-.913-.513zm-.194 6.221a1 1 0 110 2 1 1 0 010-2z"/><path fill-rule="evenodd" d="M3 11.5c0 1.34.278 2.618.78 3.777l-1.698 4.036a1 1 0 001.05 1.38l5.181-.663A9.5 9.5 0 103 11.5zm9.5-8a8 8 0 00-7.218 11.454.75.75 0 01-.045.729l-1.435 3.412 4.547-.582a.746.746 0 01.458.086A8 8 0 1012.5 3.5z"/></svg>
